svgs/thin/file-image.svg

<svg xmlns="http://www.w3.org/2000/svg" viewBox="0 0 384 512"><!-- Font Awesome Pro 6.0.0-alpha2 by @fontawesome - https://fontawesome.com License - https://fontawesome.com/license (Commercial License) --><path d="M374.629 150.625L233.371 9.375C227.371 3.371 219.23 0 210.746 0H64C28.652 0 0 28.652 0 64V448C0 483.344 28.652 512 64 512H320C355.348 512 384 483.344 384 448V173.254C384 164.766 380.629 156.629 374.629 150.625ZM224 22.629L361.375 160H248C234.781 160 224 149.234 224 136V22.629ZM60.992 495.695C35.947 494.109 16 473.438 16 448V418.688L95.375 339.312L156.375 400.312L60.992 495.695ZM368 448C368 474.469 346.469 496 320 496H83.312L272 307.312L368 403.312V448ZM368 380.688L283.314 296.001C277.065 289.753 266.935 289.753 260.686 296.001L167.688 389L106.689 328.001C100.44 321.753 90.31 321.753 84.061 328.001L16 396.062V64C16 37.49 37.49 16 64 16H208V136C208 158.091 225.909 176 248 176H368V380.688ZM96 184C73.938 184 56 201.938 56 224S73.938 264 96 264S136 246.062 136 224S118.062 184 96 184ZM96 248C82.781 248 72 237.234 72 224S82.781 200 96 200S120 210.766 120 224S109.219 248 96 248Z"/></svg>

<svg xmlns="http://www.w3.org/2000/svg" viewBox="0 0 384 512"><!--! Font Awesome Pro 6.3.0 by @fontawesome - https://fontawesome.com License - https://fontawesome.com/license (Commercial License) Copyright 2023 Fonticons, Inc. --><path d="M374.6 150.6l-141.3-141.3C227.4 3.371 219.2 0 210.7 0H64C28.65 0 0 28.65 0 64l.0065 384c0 35.34 28.65 64 64 64H320c35.35 0 64-28.66 64-64V173.3C384 164.8 380.6 156.6 374.6 150.6zM224 22.63L361.4 160H248C234.8 160 224 149.2 224 136V22.63zM60.99 495.7C35.95 494.1 16 473.4 16 448v-29.31l79.38-79.38l61 61L60.99 495.7zM368 448c0 26.47-21.53 48-48 48H83.31L272 307.3l96 96V448zM368 380.7l-84.69-84.69c-6.248-6.248-16.38-6.248-22.63 0L167.7 389L106.7 328c-6.248-6.248-16.38-6.248-22.63 0L16 396.1V64c0-26.51 21.49-48 48-48h144v120c0 22.09 17.91 40 40 40h120V380.7zM96 184C73.94 184 56 201.9 56 224S73.94 264 96 264S136 246.1 136 224S118.1 184 96 184zM96 248C82.78 248 72 237.2 72 224S82.78 200 96 200S120 210.8 120 224S109.2 248 96 248z"/></svg>
